public/images/icons/menu-price/1.svg

<svg xmlns="http://www.w3.org/2000/svg" width="60" height="50" viewBox="0 0 60 50"><path fill="#FFF" d="M52.354 10.01v15.93H47.29v-4.283c.91-1.315 1.397-2.96 1.397-4.777 0-2.894-1.205-5.384-3.49-6.692C44.547 4.888 41.62 1 38.005 1H21.94c-3.62 0-6.543 3.888-7.196 9.188-2.285 1.307-3.49 3.798-3.49 6.692 0 1.816.493 3.462 1.4 4.777v4.284H7.59V10.01H1.486V49.2H7.59V28.99h17.342v-3.05h-4.645v-1.383H39.66v1.384H35.01v3.05h17.342v20.207h6.104V10.01h-6.104zM17.72 19.375c-1.376 0-2.49-1.115-2.49-2.493s1.116-2.495 2.49-2.495c1.386 0 2.496 1.117 2.496 2.496 0 1.38-1.116 2.494-2.495 2.494m.896-10.17c-.5 0-.954.058-1.4.126.718-3.48 2.59-6.043 4.727-6.043H38.01c2.14 0 4.004 2.562 4.723 6.043-.233-.038-.492-.05-.742-.068 0-.02.006-.04.006-.06 0-2.2-1.785-3.99-3.99-3.99C35.81 5.21 34.02 7 34.02 9.2H18.615zm18.6 9.895H22.722c-.423 0-.76-.343-.76-.765s.34-.763.76-.763h14.492c.426 0 .764.34.764.763 0 .422-.34.764-.765.764m0-2.185H22.723c-.423 0-.76-.342-.76-.764s.34-.762.76-.762h14.492c.426 0 .764.34.764.763s-.34.765-.765.765m-1.667-7.712c0-1.358 1.104-2.463 2.463-2.463s2.465 1.105 2.465 2.463h-4.927zm6.675 10.17c-1.38 0-2.494-1.114-2.494-2.492s1.118-2.495 2.493-2.495 2.492 1.117 2.492 2.496c.005 1.38-1.115 2.494-2.492 2.494"/></svg>

<?xml version="1.0" encoding="utf-8"?>
<!-- Generator: Adobe Illustrator 16.0.0, SVG Export Plug-In . SVG Version: 6.00 Build 0)  -->
<!DOCTYPE svg PUBLIC "-//W3C//DTD SVG 1.1//EN" "http://www.w3.org/Graphics/SVG/1.1/DTD/svg11.dtd">
<svg version="1.1" id="Layer_1" xmlns="http://www.w3.org/2000/svg" xmlns:xlink="http://www.w3.org/1999/xlink" x="0px" y="0px"
	 width="60px" height="50px" viewBox="0 0 60 50" enable-background="new 0 0 60 50" xml:space="preserve">
<path fill="#FFFFFF" d="M52.354,10.011v15.93H47.29v-4.284c0.909-1.315,1.397-2.961,1.397-4.777c0-2.894-1.205-5.384-3.49-6.692
	C44.546,4.888,41.621,1,38.005,1H21.939c-3.618,0-6.542,3.888-7.195,9.188c-2.285,1.307-3.491,3.798-3.491,6.692
	c0,1.816,0.494,3.462,1.4,4.777v4.284H7.59v-15.93H1.486v39.187h6.105V28.99h17.341v-3.049h-4.645v-1.384h19.372v1.384h-4.647v3.049
	h17.342v20.207h6.104V10.011H52.354z M17.721,19.374c-1.377,0-2.491-1.115-2.491-2.493c0-1.379,1.116-2.496,2.491-2.496
	c1.385,0,2.495,1.117,2.495,2.496C20.216,18.259,19.1,19.374,17.721,19.374 M18.616,9.203c-0.5,0-0.954,0.059-1.4,0.127
	c0.718-3.481,2.59-6.043,4.727-6.043h16.068c2.138,0,4.003,2.562,4.722,6.043c-0.233-0.038-0.492-0.049-0.742-0.068
	c0-0.021,0.005-0.04,0.005-0.061c0-2.199-1.785-3.99-3.989-3.99c-2.199,0-3.988,1.789-3.988,3.99L18.616,9.203z M37.215,19.099
	H22.723c-0.423,0-0.761-0.342-0.761-0.764c0-0.422,0.341-0.763,0.761-0.763h14.492c0.426,0,0.764,0.341,0.764,0.763
	C37.98,18.757,37.641,19.099,37.215,19.099 M37.215,16.915H22.723c-0.423,0-0.761-0.342-0.761-0.764s0.341-0.763,0.761-0.763h14.492
	c0.426,0,0.764,0.341,0.764,0.763C37.98,16.573,37.641,16.915,37.215,16.915 M35.548,9.203c0-1.358,1.104-2.463,2.463-2.463
	s2.464,1.105,2.464,2.463H35.548z M42.223,19.374c-1.381,0-2.494-1.115-2.494-2.493c0-1.379,1.119-2.496,2.494-2.496
	s2.492,1.117,2.492,2.496C44.72,18.259,43.6,19.374,42.223,19.374"/>
</svg>
